X: 9591
T: Davy Collins'
R: slide
M: 12/8
K: Gmajor
|:E2 A AGE G2 A Bcd|E2 A AGE G2 E D2 G|
E2 A AGE G2 A Bcd|1 e2 d BAG ABA G2 A:|2 e2 d BAG ABA A2 d||
|:e3 edB d2 d dBd|ege e2 f g2 e dBd|
[1 e2 g edB d2 e d2 B|ABc B2 A G2 E D2 d:|
[2 c2 c cBA cdc c2 B|ABc B2 A G2 E D2 G||

